X:1
T:Title
%%score { ( 1 4 ) | ( 2 3 ) }
L:1/8
Q:1/4=100
M:6/8
K:Ab
V:1 treble nm="Grand Piano"
V:4 treble 
V:2 bass 
V:3 bass 
V:1
 [CA]2 [CA] .[DA]2 [G,DF] | .[A,CE]3 [A,CE]3 | z3 .F3 | B6 | c2 c cBA | [EA]3 F3 | E2 E EFG | %7
[M:7/4] [CA]6 z2 z2 z4 |[M:3/4] [DA]6 | [CA]6 |] %10
V:2
 [A,,E,]2 [A,,E,] z GA,, | z2 E, A,,3 | D,2 D, B,,2 [F,A,C] | [E,E]6 | %4
 [A,CE]2 [A,CE] [=E,C]2 [F,CF] | [C,A,]3 [D,A,D]3 | [E,G,D]2 [E,G,D] [E,D]-[E,A,D][E,B,D] | %7
[M:7/4] [A,,A,]6 z2 z2 z4 |[M:3/4] [D,F,]6 | [A,,E,]6 |] %10
V:3
 z3 .[A,,F,]3 | A,,3 z3 | x6 | A,3 z3 | x6 | x6 | z3 .G,3 |[M:7/4] x14 |[M:3/4] x6 | x6 |] %10
V:4
 x6 | x6 | [A,DF]2 [A,DF] [B,D]-[B,DG]A | z3 G,3 | z3 .G3 | x6 | x6 |[M:7/4] x14 |[M:3/4] x6 | %9
 x6 |] %10

